(Exported by FreeCAD)
(Post Processor: linuxcnc_post)
(Output Time:2022-04-22 01:47:35.445497)
(begin preamble)
G17 G54 G40 G49 G80 G90
G21
(begin operation: 8mm_endmill001)
(machine units: mm/min)
(8mm_endmill001) 
M5
M6 T3 
G43 H3 
(finish operation: 8mm_endmill001)
(begin operation: Fixture)
(machine units: mm/min)
G54 
G0 Z26.000 
(finish operation: Fixture)
(begin operation: MillFace)
(machine units: mm/min)
(MillFace) 
G0 Z26.000 
G0 X72.000 Y45.500 
G0 Z24.000 
G1 X72.000 Y45.500 Z18.000 F437.000 
G1 X72.000 Y-45.500 Z18.000 F437.000 
G1 X-72.000 Y-45.500 Z18.000 F437.000 
G1 X-72.000 Y45.500 Z18.000 F437.000 
G1 X72.000 Y45.500 Z18.000 F437.000 
G1 X72.000 Y45.500 Z18.000 F437.000 
G1 X66.343 Y45.500 Z18.000 F437.000 
G1 X72.000 Y39.843 Z18.000 F437.000 
G1 X72.000 Y34.186 Z18.000 F437.000 
G1 X60.686 Y45.500 Z18.000 F437.000 
G1 X55.029 Y45.500 Z18.000 F437.000 
G1 X72.000 Y28.529 Z18.000 F437.000 
G1 X72.000 Y22.873 Z18.000 F437.000 
G1 X49.373 Y45.500 Z18.000 F437.000 
G1 X43.716 Y45.500 Z18.000 F437.000 
G1 X72.000 Y17.216 Z18.000 F437.000 
G1 X72.000 Y11.559 Z18.000 F437.000 
G1 X38.059 Y45.500 Z18.000 F437.000 
G1 X32.402 Y45.500 Z18.000 F437.000 
G1 X72.000 Y5.902 Z18.000 F437.000 
G1 X72.000 Y0.245 Z18.000 F437.000 
G1 X26.745 Y45.500 Z18.000 F437.000 
G1 X21.088 Y45.500 Z18.000 F437.000 
G1 X72.000 Y-5.412 Z18.000 F437.000 
G1 X72.000 Y-11.069 Z18.000 F437.000 
G1 X15.431 Y45.500 Z18.000 F437.000 
G1 X9.775 Y45.500 Z18.000 F437.000 
G1 X72.000 Y-16.725 Z18.000 F437.000 
G1 X72.000 Y-22.382 Z18.000 F437.000 
G1 X4.118 Y45.500 Z18.000 F437.000 
G1 X-1.539 Y45.500 Z18.000 F437.000 
G1 X72.000 Y-28.039 Z18.000 F437.000 
G1 X72.000 Y-33.696 Z18.000 F437.000 
G1 X-7.196 Y45.500 Z18.000 F437.000 
G1 X-12.853 Y45.500 Z18.000 F437.000 
G1 X72.000 Y-39.353 Z18.000 F437.000 
G1 X72.000 Y-45.010 Z18.000 F437.000 
G1 X-18.510 Y45.500 Z18.000 F437.000 
G1 X-24.167 Y45.500 Z18.000 F437.000 
G1 X66.833 Y-45.500 Z18.000 F437.000 
G1 X61.177 Y-45.500 Z18.000 F437.000 
G1 X-29.823 Y45.500 Z18.000 F437.000 
G1 X-35.480 Y45.500 Z18.000 F437.000 
G1 X55.520 Y-45.500 Z18.000 F437.000 
G1 X49.863 Y-45.500 Z18.000 F437.000 
G1 X-41.137 Y45.500 Z18.000 F437.000 
G1 X-46.794 Y45.500 Z18.000 F437.000 
G1 X44.206 Y-45.500 Z18.000 F437.000 
G1 X38.549 Y-45.500 Z18.000 F437.000 
G1 X-52.451 Y45.500 Z18.000 F437.000 
G1 X-58.108 Y45.500 Z18.000 F437.000 
G1 X32.892 Y-45.500 Z18.000 F437.000 
G1 X27.235 Y-45.500 Z18.000 F437.000 
G1 X-63.765 Y45.500 Z18.000 F437.000 
G1 X-69.421 Y45.500 Z18.000 F437.000 
G1 X21.579 Y-45.500 Z18.000 F437.000 
G1 X15.922 Y-45.500 Z18.000 F437.000 
G1 X-72.000 Y42.422 Z18.000 F437.000 
G1 X-72.000 Y36.765 Z18.000 F437.000 
G1 X10.265 Y-45.500 Z18.000 F437.000 
G1 X4.608 Y-45.500 Z18.000 F437.000 
G1 X-72.000 Y31.108 Z18.000 F437.000 
G1 X-72.000 Y25.451 Z18.000 F437.000 
G1 X-1.049 Y-45.500 Z18.000 F437.000 
G1 X-6.706 Y-45.500 Z18.000 F437.000 
G1 X-72.000 Y19.794 Z18.000 F437.000 
G1 X-72.000 Y14.138 Z18.000 F437.000 
G1 X-12.362 Y-45.500 Z18.000 F437.000 
G1 X-18.019 Y-45.500 Z18.000 F437.000 
G1 X-72.000 Y8.481 Z18.000 F437.000 
G1 X-72.000 Y2.824 Z18.000 F437.000 
G1 X-23.676 Y-45.500 Z18.000 F437.000 
G1 X-29.333 Y-45.500 Z18.000 F437.000 
G1 X-72.000 Y-2.833 Z18.000 F437.000 
G1 X-72.000 Y-8.490 Z18.000 F437.000 
G1 X-34.990 Y-45.500 Z18.000 F437.000 
G1 X-40.647 Y-45.500 Z18.000 F437.000 
G1 X-72.000 Y-14.147 Z18.000 F437.000 
G1 X-72.000 Y-19.804 Z18.000 F437.000 
G1 X-46.304 Y-45.500 Z18.000 F437.000 
G1 X-51.960 Y-45.500 Z18.000 F437.000 
G1 X-72.000 Y-25.460 Z18.000 F437.000 
G1 X-72.000 Y-31.117 Z18.000 F437.000 
G1 X-57.617 Y-45.500 Z18.000 F437.000 
G1 X-63.274 Y-45.500 Z18.000 F437.000 
G1 X-72.000 Y-36.774 Z18.000 F437.000 
G1 X-72.000 Y-42.431 Z18.000 F437.000 
G1 X-72.000 Y-45.500 Z18.000 F437.000 
G1 X-68.931 Y-45.500 Z18.000 F437.000 
G1 X-72.000 Y-42.431 Z18.000 F437.000 
G0 Z26.000 
G0 Z26.000 
(finish operation: MillFace)
(begin postamble)
M05
G17 G54 G90 G80 G40
M2
