(Exported by FreeCAD)
(Post Processor: linuxcnc_post)
(Output Time:2022-04-22 01:47:45.962767)
(begin preamble)
G17 G54 G40 G49 G80 G90
G21
(begin operation: 4mm_endmill001)
(machine units: mm/min)
(4mm_endmill001) 
M5
M6 T2 
G43 H2 
(finish operation: 4mm_endmill001)
(begin operation: Fixture)
(machine units: mm/min)
G54 
G0 Z26.000 
(finish operation: Fixture)
(begin operation: Helix)
(machine units: mm/min)
(Helix) 
(helix cut operation) 
G0 Z26.000 
G0 Z26.000 
G0 X-9.500 Y12.500 Z26.000 
G0 X-9.500 Y12.500 Z21.000 
G0 X-7.400 Y12.500 
G1 Z21.000 F437.000 
G2 X-11.600 Y12.500 Z19.367 I-2.100 J0.000 F437.000 
G2 X-7.400 Y12.500 Z17.733 I2.100 J0.000 F437.000 
G2 X-11.600 Y12.500 Z16.100 I-2.100 J0.000 F437.000 
G2 X-7.400 Y12.500 Z14.467 I2.100 J0.000 F437.000 
G2 X-11.600 Y12.500 Z12.833 I-2.100 J0.000 F437.000 
G2 X-7.400 Y12.500 Z11.200 I2.100 J0.000 F437.000 
G2 X-11.600 Y12.500 Z11.200 I-2.100 J0.000 F437.000 
G2 X-7.400 Y12.500 Z11.200 I2.100 J0.000 F437.000 
G0 Z21.000 
G0 X-6.000 Y12.500 
G1 Z21.000 F437.000 
G2 X-13.000 Y12.500 Z19.367 I-3.500 J0.000 F437.000 
G2 X-6.000 Y12.500 Z17.733 I3.500 J0.000 F437.000 
G2 X-13.000 Y12.500 Z16.100 I-3.500 J0.000 F437.000 
G2 X-6.000 Y12.500 Z14.467 I3.500 J0.000 F437.000 
G2 X-13.000 Y12.500 Z12.833 I-3.500 J0.000 F437.000 
G2 X-6.000 Y12.500 Z11.200 I3.500 J0.000 F437.000 
G2 X-13.000 Y12.500 Z11.200 I-3.500 J0.000 F437.000 
G2 X-6.000 Y12.500 Z11.200 I3.500 J0.000 F437.000 
G0 Z21.000 
G0 Z26.000 
G0 X0.000 Y23.500 Z26.000 
G0 X0.000 Y23.500 Z21.000 
G0 X2.100 Y23.500 
G1 Z21.000 F437.000 
G2 X-2.100 Y23.500 Z19.367 I-2.100 J0.000 F437.000 
G2 X2.100 Y23.500 Z17.733 I2.100 J0.000 F437.000 
G2 X-2.100 Y23.500 Z16.100 I-2.100 J0.000 F437.000 
G2 X2.100 Y23.500 Z14.467 I2.100 J0.000 F437.000 
G2 X-2.100 Y23.500 Z12.833 I-2.100 J0.000 F437.000 
G2 X2.100 Y23.500 Z11.200 I2.100 J0.000 F437.000 
G2 X-2.100 Y23.500 Z11.200 I-2.100 J0.000 F437.000 
G2 X2.100 Y23.500 Z11.200 I2.100 J0.000 F437.000 
G0 Z21.000 
G0 X3.500 Y23.500 
G1 Z21.000 F437.000 
G2 X-3.500 Y23.500 Z19.367 I-3.500 J0.000 F437.000 
G2 X3.500 Y23.500 Z17.733 I3.500 J0.000 F437.000 
G2 X-3.500 Y23.500 Z16.100 I-3.500 J0.000 F437.000 
G2 X3.500 Y23.500 Z14.467 I3.500 J0.000 F437.000 
G2 X-3.500 Y23.500 Z12.833 I-3.500 J0.000 F437.000 
G2 X3.500 Y23.500 Z11.200 I3.500 J0.000 F437.000 
G2 X-3.500 Y23.500 Z11.200 I-3.500 J0.000 F437.000 
G2 X3.500 Y23.500 Z11.200 I3.500 J0.000 F437.000 
G0 Z21.000 
G0 Z26.000 
G0 X9.500 Y12.500 Z26.000 
G0 X9.500 Y12.500 Z21.000 
G0 X11.600 Y12.500 
G1 Z21.000 F437.000 
G2 X7.400 Y12.500 Z19.367 I-2.100 J0.000 F437.000 
G2 X11.600 Y12.500 Z17.733 I2.100 J0.000 F437.000 
G2 X7.400 Y12.500 Z16.100 I-2.100 J0.000 F437.000 
G2 X11.600 Y12.500 Z14.467 I2.100 J0.000 F437.000 
G2 X7.400 Y12.500 Z12.833 I-2.100 J0.000 F437.000 
G2 X11.600 Y12.500 Z11.200 I2.100 J0.000 F437.000 
G2 X7.400 Y12.500 Z11.200 I-2.100 J0.000 F437.000 
G2 X11.600 Y12.500 Z11.200 I2.100 J0.000 F437.000 
G0 Z21.000 
G0 X13.000 Y12.500 
G1 Z21.000 F437.000 
G2 X6.000 Y12.500 Z19.367 I-3.500 J0.000 F437.000 
G2 X13.000 Y12.500 Z17.733 I3.500 J0.000 F437.000 
G2 X6.000 Y12.500 Z16.100 I-3.500 J0.000 F437.000 
G2 X13.000 Y12.500 Z14.467 I3.500 J0.000 F437.000 
G2 X6.000 Y12.500 Z12.833 I-3.500 J0.000 F437.000 
G2 X13.000 Y12.500 Z11.200 I3.500 J0.000 F437.000 
G2 X6.000 Y12.500 Z11.200 I-3.500 J0.000 F437.000 
G2 X13.000 Y12.500 Z11.200 I3.500 J0.000 F437.000 
G0 Z21.000 
G0 Z26.000 
G0 X9.500 Y-27.500 Z26.000 
G0 X9.500 Y-27.500 Z21.000 
G0 X11.600 Y-27.500 
G1 Z21.000 F437.000 
G2 X7.400 Y-27.500 Z19.367 I-2.100 J0.000 F437.000 
G2 X11.600 Y-27.500 Z17.733 I2.100 J0.000 F437.000 
G2 X7.400 Y-27.500 Z16.100 I-2.100 J0.000 F437.000 
G2 X11.600 Y-27.500 Z14.467 I2.100 J0.000 F437.000 
G2 X7.400 Y-27.500 Z12.833 I-2.100 J0.000 F437.000 
G2 X11.600 Y-27.500 Z11.200 I2.100 J0.000 F437.000 
G2 X7.400 Y-27.500 Z11.200 I-2.100 J0.000 F437.000 
G2 X11.600 Y-27.500 Z11.200 I2.100 J0.000 F437.000 
G0 Z21.000 
G0 X13.000 Y-27.500 
G1 Z21.000 F437.000 
G2 X6.000 Y-27.500 Z19.367 I-3.500 J0.000 F437.000 
G2 X13.000 Y-27.500 Z17.733 I3.500 J0.000 F437.000 
G2 X6.000 Y-27.500 Z16.100 I-3.500 J0.000 F437.000 
G2 X13.000 Y-27.500 Z14.467 I3.500 J0.000 F437.000 
G2 X6.000 Y-27.500 Z12.833 I-3.500 J0.000 F437.000 
G2 X13.000 Y-27.500 Z11.200 I3.500 J0.000 F437.000 
G2 X6.000 Y-27.500 Z11.200 I-3.500 J0.000 F437.000 
G2 X13.000 Y-27.500 Z11.200 I3.500 J0.000 F437.000 
G0 Z21.000 
G0 Z26.000 
G0 X-9.500 Y-27.500 Z26.000 
G0 X-9.500 Y-27.500 Z21.000 
G0 X-7.400 Y-27.500 
G1 Z21.000 F437.000 
G2 X-11.600 Y-27.500 Z19.367 I-2.100 J0.000 F437.000 
G2 X-7.400 Y-27.500 Z17.733 I2.100 J0.000 F437.000 
G2 X-11.600 Y-27.500 Z16.100 I-2.100 J0.000 F437.000 
G2 X-7.400 Y-27.500 Z14.467 I2.100 J0.000 F437.000 
G2 X-11.600 Y-27.500 Z12.833 I-2.100 J0.000 F437.000 
G2 X-7.400 Y-27.500 Z11.200 I2.100 J0.000 F437.000 
G2 X-11.600 Y-27.500 Z11.200 I-2.100 J0.000 F437.000 
G2 X-7.400 Y-27.500 Z11.200 I2.100 J0.000 F437.000 
G0 Z21.000 
G0 X-6.000 Y-27.500 
G1 Z21.000 F437.000 
G2 X-13.000 Y-27.500 Z19.367 I-3.500 J0.000 F437.000 
G2 X-6.000 Y-27.500 Z17.733 I3.500 J0.000 F437.000 
G2 X-13.000 Y-27.500 Z16.100 I-3.500 J0.000 F437.000 
G2 X-6.000 Y-27.500 Z14.467 I3.500 J0.000 F437.000 
G2 X-13.000 Y-27.500 Z12.833 I-3.500 J0.000 F437.000 
G2 X-6.000 Y-27.500 Z11.200 I3.500 J0.000 F437.000 
G2 X-13.000 Y-27.500 Z11.200 I-3.500 J0.000 F437.000 
G2 X-6.000 Y-27.500 Z11.200 I3.500 J0.000 F437.000 
G0 Z21.000 
G0 Z26.000 
(finish operation: Helix)
(begin operation: Helix001)
(machine units: mm/min)
(Helix001) 
(helix cut operation) 
G0 Z26.000 
G0 Z26.000 
G0 X0.000 Y-7.500 Z26.000 
G0 X0.000 Y-7.500 Z21.000 
G0 X0.750 Y-7.500 
G1 Z21.000 F437.000 
G2 X-0.750 Y-7.500 Z19.250 I-0.750 J0.000 F437.000 
G2 X0.750 Y-7.500 Z17.500 I0.750 J0.000 F437.000 
G2 X-0.750 Y-7.500 Z15.750 I-0.750 J0.000 F437.000 
G2 X0.750 Y-7.500 Z14.000 I0.750 J0.000 F437.000 
G2 X-0.750 Y-7.500 Z12.250 I-0.750 J0.000 F437.000 
G2 X0.750 Y-7.500 Z10.500 I0.750 J0.000 F437.000 
G2 X-0.750 Y-7.500 Z8.750 I-0.750 J0.000 F437.000 
G2 X0.750 Y-7.500 Z7.000 I0.750 J0.000 F437.000 
G2 X-0.750 Y-7.500 Z5.250 I-0.750 J0.000 F437.000 
G2 X0.750 Y-7.500 Z3.500 I0.750 J0.000 F437.000 
G2 X-0.750 Y-7.500 Z1.750 I-0.750 J0.000 F437.000 
G2 X0.750 Y-7.500 Z0.000 I0.750 J0.000 F437.000 
G2 X-0.750 Y-7.500 Z0.000 I-0.750 J0.000 F437.000 
G2 X0.750 Y-7.500 Z0.000 I0.750 J0.000 F437.000 
G0 X0.000 Y-7.500 Z0.000 
G0 Z21.000 
G0 Z26.000 
G0 X9.500 Y-27.500 Z26.000 
G0 X9.500 Y-27.500 Z21.000 
G0 X10.800 Y-27.500 
G1 Z21.000 F437.000 
G2 X8.200 Y-27.500 Z19.250 I-1.300 J0.000 F437.000 
G2 X10.800 Y-27.500 Z17.500 I1.300 J0.000 F437.000 
G2 X8.200 Y-27.500 Z15.750 I-1.300 J0.000 F437.000 
G2 X10.800 Y-27.500 Z14.000 I1.300 J0.000 F437.000 
G2 X8.200 Y-27.500 Z12.250 I-1.300 J0.000 F437.000 
G2 X10.800 Y-27.500 Z10.500 I1.300 J0.000 F437.000 
G2 X8.200 Y-27.500 Z8.750 I-1.300 J0.000 F437.000 
G2 X10.800 Y-27.500 Z7.000 I1.300 J0.000 F437.000 
G2 X8.200 Y-27.500 Z5.250 I-1.300 J0.000 F437.000 
G2 X10.800 Y-27.500 Z3.500 I1.300 J0.000 F437.000 
G2 X8.200 Y-27.500 Z1.750 I-1.300 J0.000 F437.000 
G2 X10.800 Y-27.500 Z0.000 I1.300 J0.000 F437.000 
G2 X8.200 Y-27.500 Z0.000 I-1.300 J0.000 F437.000 
G2 X10.800 Y-27.500 Z0.000 I1.300 J0.000 F437.000 
G0 X9.500 Y-27.500 Z0.000 
G0 Z21.000 
G0 Z26.000 
G0 X-9.500 Y-27.500 Z26.000 
G0 X-9.500 Y-27.500 Z21.000 
G0 X-8.200 Y-27.500 
G1 Z21.000 F437.000 
G2 X-10.800 Y-27.500 Z19.250 I-1.300 J0.000 F437.000 
G2 X-8.200 Y-27.500 Z17.500 I1.300 J0.000 F437.000 
G2 X-10.800 Y-27.500 Z15.750 I-1.300 J0.000 F437.000 
G2 X-8.200 Y-27.500 Z14.000 I1.300 J0.000 F437.000 
G2 X-10.800 Y-27.500 Z12.250 I-1.300 J0.000 F437.000 
G2 X-8.200 Y-27.500 Z10.500 I1.300 J0.000 F437.000 
G2 X-10.800 Y-27.500 Z8.750 I-1.300 J0.000 F437.000 
G2 X-8.200 Y-27.500 Z7.000 I1.300 J0.000 F437.000 
G2 X-10.800 Y-27.500 Z5.250 I-1.300 J0.000 F437.000 
G2 X-8.200 Y-27.500 Z3.500 I1.300 J0.000 F437.000 
G2 X-10.800 Y-27.500 Z1.750 I-1.300 J0.000 F437.000 
G2 X-8.200 Y-27.500 Z0.000 I1.300 J0.000 F437.000 
G2 X-10.800 Y-27.500 Z0.000 I-1.300 J0.000 F437.000 
G2 X-8.200 Y-27.500 Z0.000 I1.300 J0.000 F437.000 
G0 X-9.500 Y-27.500 Z0.000 
G0 Z21.000 
G0 Z26.000 
G0 X-9.500 Y12.500 Z26.000 
G0 X-9.500 Y12.500 Z21.000 
G0 X-8.200 Y12.500 
G1 Z21.000 F437.000 
G2 X-10.800 Y12.500 Z19.250 I-1.300 J0.000 F437.000 
G2 X-8.200 Y12.500 Z17.500 I1.300 J0.000 F437.000 
G2 X-10.800 Y12.500 Z15.750 I-1.300 J0.000 F437.000 
G2 X-8.200 Y12.500 Z14.000 I1.300 J0.000 F437.000 
G2 X-10.800 Y12.500 Z12.250 I-1.300 J0.000 F437.000 
G2 X-8.200 Y12.500 Z10.500 I1.300 J0.000 F437.000 
G2 X-10.800 Y12.500 Z8.750 I-1.300 J0.000 F437.000 
G2 X-8.200 Y12.500 Z7.000 I1.300 J0.000 F437.000 
G2 X-10.800 Y12.500 Z5.250 I-1.300 J0.000 F437.000 
G2 X-8.200 Y12.500 Z3.500 I1.300 J0.000 F437.000 
G2 X-10.800 Y12.500 Z1.750 I-1.300 J0.000 F437.000 
G2 X-8.200 Y12.500 Z0.000 I1.300 J0.000 F437.000 
G2 X-10.800 Y12.500 Z0.000 I-1.300 J0.000 F437.000 
G2 X-8.200 Y12.500 Z0.000 I1.300 J0.000 F437.000 
G0 X-9.500 Y12.500 Z0.000 
G0 Z21.000 
G0 Z26.000 
G0 X0.000 Y23.500 Z26.000 
G0 X0.000 Y23.500 Z21.000 
G0 X0.750 Y23.500 
G1 Z21.000 F437.000 
G2 X-0.750 Y23.500 Z19.250 I-0.750 J0.000 F437.000 
G2 X0.750 Y23.500 Z17.500 I0.750 J0.000 F437.000 
G2 X-0.750 Y23.500 Z15.750 I-0.750 J0.000 F437.000 
G2 X0.750 Y23.500 Z14.000 I0.750 J0.000 F437.000 
G2 X-0.750 Y23.500 Z12.250 I-0.750 J0.000 F437.000 
G2 X0.750 Y23.500 Z10.500 I0.750 J0.000 F437.000 
G2 X-0.750 Y23.500 Z8.750 I-0.750 J0.000 F437.000 
G2 X0.750 Y23.500 Z7.000 I0.750 J0.000 F437.000 
G2 X-0.750 Y23.500 Z5.250 I-0.750 J0.000 F437.000 
G2 X0.750 Y23.500 Z3.500 I0.750 J0.000 F437.000 
G2 X-0.750 Y23.500 Z1.750 I-0.750 J0.000 F437.000 
G2 X0.750 Y23.500 Z0.000 I0.750 J0.000 F437.000 
G2 X-0.750 Y23.500 Z0.000 I-0.750 J0.000 F437.000 
G2 X0.750 Y23.500 Z0.000 I0.750 J0.000 F437.000 
G0 X0.000 Y23.500 Z0.000 
G0 Z21.000 
G0 Z26.000 
G0 X9.500 Y12.500 Z26.000 
G0 X9.500 Y12.500 Z21.000 
G0 X10.800 Y12.500 
G1 Z21.000 F437.000 
G2 X8.200 Y12.500 Z19.250 I-1.300 J0.000 F437.000 
G2 X10.800 Y12.500 Z17.500 I1.300 J0.000 F437.000 
G2 X8.200 Y12.500 Z15.750 I-1.300 J0.000 F437.000 
G2 X10.800 Y12.500 Z14.000 I1.300 J0.000 F437.000 
G2 X8.200 Y12.500 Z12.250 I-1.300 J0.000 F437.000 
G2 X10.800 Y12.500 Z10.500 I1.300 J0.000 F437.000 
G2 X8.200 Y12.500 Z8.750 I-1.300 J0.000 F437.000 
G2 X10.800 Y12.500 Z7.000 I1.300 J0.000 F437.000 
G2 X8.200 Y12.500 Z5.250 I-1.300 J0.000 F437.000 
G2 X10.800 Y12.500 Z3.500 I1.300 J0.000 F437.000 
G2 X8.200 Y12.500 Z1.750 I-1.300 J0.000 F437.000 
G2 X10.800 Y12.500 Z0.000 I1.300 J0.000 F437.000 
G2 X8.200 Y12.500 Z0.000 I-1.300 J0.000 F437.000 
G2 X10.800 Y12.500 Z0.000 I1.300 J0.000 F437.000 
G0 X9.500 Y12.500 Z0.000 
G0 Z21.000 
G0 Z26.000 
G0 X17.500 Y41.500 Z26.000 
G0 X17.500 Y41.500 Z21.000 
G0 X18.250 Y41.500 
G1 Z21.000 F437.000 
G2 X16.750 Y41.500 Z19.250 I-0.750 J0.000 F437.000 
G2 X18.250 Y41.500 Z17.500 I0.750 J0.000 F437.000 
G2 X16.750 Y41.500 Z15.750 I-0.750 J0.000 F437.000 
G2 X18.250 Y41.500 Z14.000 I0.750 J0.000 F437.000 
G2 X16.750 Y41.500 Z12.250 I-0.750 J0.000 F437.000 
G2 X18.250 Y41.500 Z10.500 I0.750 J0.000 F437.000 
G2 X16.750 Y41.500 Z8.750 I-0.750 J0.000 F437.000 
G2 X18.250 Y41.500 Z7.000 I0.750 J0.000 F437.000 
G2 X16.750 Y41.500 Z5.250 I-0.750 J0.000 F437.000 
G2 X18.250 Y41.500 Z3.500 I0.750 J0.000 F437.000 
G2 X16.750 Y41.500 Z1.750 I-0.750 J0.000 F437.000 
G2 X18.250 Y41.500 Z0.000 I0.750 J0.000 F437.000 
G2 X16.750 Y41.500 Z0.000 I-0.750 J0.000 F437.000 
G2 X18.250 Y41.500 Z0.000 I0.750 J0.000 F437.000 
G0 X17.500 Y41.500 Z0.000 
G0 Z21.000 
G0 Z26.000 
G0 X44.000 Y41.500 Z26.000 
G0 X44.000 Y41.500 Z21.000 
G0 X44.100 Y41.500 
G1 Z21.000 F437.000 
G2 X43.900 Y41.500 Z19.250 I-0.100 J0.000 F437.000 
G2 X44.100 Y41.500 Z17.500 I0.100 J0.000 F437.000 
G2 X43.900 Y41.500 Z15.750 I-0.100 J0.000 F437.000 
G2 X44.100 Y41.500 Z14.000 I0.100 J0.000 F437.000 
G2 X43.900 Y41.500 Z12.250 I-0.100 J0.000 F437.000 
G2 X44.100 Y41.500 Z10.500 I0.100 J0.000 F437.000 
G2 X43.900 Y41.500 Z8.750 I-0.100 J0.000 F437.000 
G2 X44.100 Y41.500 Z7.000 I0.100 J0.000 F437.000 
G2 X43.900 Y41.500 Z5.250 I-0.100 J0.000 F437.000 
G2 X44.100 Y41.500 Z3.500 I0.100 J0.000 F437.000 
G2 X43.900 Y41.500 Z1.750 I-0.100 J0.000 F437.000 
G2 X44.100 Y41.500 Z0.000 I0.100 J0.000 F437.000 
G2 X43.900 Y41.500 Z0.000 I-0.100 J0.000 F437.000 
G2 X44.100 Y41.500 Z0.000 I0.100 J0.000 F437.000 
G0 X44.000 Y41.500 Z0.000 
G0 Z21.000 
G0 Z26.000 
G0 X68.000 Y41.500 Z26.000 
G0 X68.000 Y41.500 Z21.000 
G0 X68.100 Y41.500 
G1 Z21.000 F437.000 
G2 X67.900 Y41.500 Z19.250 I-0.100 J0.000 F437.000 
G2 X68.100 Y41.500 Z17.500 I0.100 J0.000 F437.000 
G2 X67.900 Y41.500 Z15.750 I-0.100 J0.000 F437.000 
G2 X68.100 Y41.500 Z14.000 I0.100 J0.000 F437.000 
G2 X67.900 Y41.500 Z12.250 I-0.100 J0.000 F437.000 
G2 X68.100 Y41.500 Z10.500 I0.100 J0.000 F437.000 
G2 X67.900 Y41.500 Z8.750 I-0.100 J0.000 F437.000 
G2 X68.100 Y41.500 Z7.000 I0.100 J0.000 F437.000 
G2 X67.900 Y41.500 Z5.250 I-0.100 J0.000 F437.000 
G2 X68.100 Y41.500 Z3.500 I0.100 J0.000 F437.000 
G2 X67.900 Y41.500 Z1.750 I-0.100 J0.000 F437.000 
G2 X68.100 Y41.500 Z0.000 I0.100 J0.000 F437.000 
G2 X67.900 Y41.500 Z0.000 I-0.100 J0.000 F437.000 
G2 X68.100 Y41.500 Z0.000 I0.100 J0.000 F437.000 
G0 X68.000 Y41.500 Z0.000 
G0 Z21.000 
G0 Z26.000 
G0 X62.500 Y12.500 Z26.000 
G0 X62.500 Y12.500 Z21.000 
G0 X63.800 Y12.500 
G1 Z21.000 F437.000 
G2 X61.200 Y12.500 Z19.250 I-1.300 J0.000 F437.000 
G2 X63.800 Y12.500 Z17.500 I1.300 J0.000 F437.000 
G2 X61.200 Y12.500 Z15.750 I-1.300 J0.000 F437.000 
G2 X63.800 Y12.500 Z14.000 I1.300 J0.000 F437.000 
G2 X61.200 Y12.500 Z12.250 I-1.300 J0.000 F437.000 
G2 X63.800 Y12.500 Z10.500 I1.300 J0.000 F437.000 
G2 X61.200 Y12.500 Z8.750 I-1.300 J0.000 F437.000 
G2 X63.800 Y12.500 Z7.000 I1.300 J0.000 F437.000 
G2 X61.200 Y12.500 Z5.250 I-1.300 J0.000 F437.000 
G2 X63.800 Y12.500 Z3.500 I1.300 J0.000 F437.000 
G2 X61.200 Y12.500 Z1.750 I-1.300 J0.000 F437.000 
G2 X63.800 Y12.500 Z0.000 I1.300 J0.000 F437.000 
G2 X61.200 Y12.500 Z0.000 I-1.300 J0.000 F437.000 
G2 X63.800 Y12.500 Z0.000 I1.300 J0.000 F437.000 
G0 X62.500 Y12.500 Z0.000 
G0 Z21.000 
G0 Z26.000 
G0 X62.500 Y-27.500 Z26.000 
G0 X62.500 Y-27.500 Z21.000 
G0 X63.800 Y-27.500 
G1 Z21.000 F437.000 
G2 X61.200 Y-27.500 Z19.250 I-1.300 J0.000 F437.000 
G2 X63.800 Y-27.500 Z17.500 I1.300 J0.000 F437.000 
G2 X61.200 Y-27.500 Z15.750 I-1.300 J0.000 F437.000 
G2 X63.800 Y-27.500 Z14.000 I1.300 J0.000 F437.000 
G2 X61.200 Y-27.500 Z12.250 I-1.300 J0.000 F437.000 
G2 X63.800 Y-27.500 Z10.500 I1.300 J0.000 F437.000 
G2 X61.200 Y-27.500 Z8.750 I-1.300 J0.000 F437.000 
G2 X63.800 Y-27.500 Z7.000 I1.300 J0.000 F437.000 
G2 X61.200 Y-27.500 Z5.250 I-1.300 J0.000 F437.000 
G2 X63.800 Y-27.500 Z3.500 I1.300 J0.000 F437.000 
G2 X61.200 Y-27.500 Z1.750 I-1.300 J0.000 F437.000 
G2 X63.800 Y-27.500 Z0.000 I1.300 J0.000 F437.000 
G2 X61.200 Y-27.500 Z0.000 I-1.300 J0.000 F437.000 
G2 X63.800 Y-27.500 Z0.000 I1.300 J0.000 F437.000 
G0 X62.500 Y-27.500 Z0.000 
G0 Z21.000 
G0 Z26.000 
G0 X-17.500 Y41.500 Z26.000 
G0 X-17.500 Y41.500 Z21.000 
G0 X-16.750 Y41.500 
G1 Z21.000 F437.000 
G2 X-18.250 Y41.500 Z19.250 I-0.750 J0.000 F437.000 
G2 X-16.750 Y41.500 Z17.500 I0.750 J0.000 F437.000 
G2 X-18.250 Y41.500 Z15.750 I-0.750 J0.000 F437.000 
G2 X-16.750 Y41.500 Z14.000 I0.750 J0.000 F437.000 
G2 X-18.250 Y41.500 Z12.250 I-0.750 J0.000 F437.000 
G2 X-16.750 Y41.500 Z10.500 I0.750 J0.000 F437.000 
G2 X-18.250 Y41.500 Z8.750 I-0.750 J0.000 F437.000 
G2 X-16.750 Y41.500 Z7.000 I0.750 J0.000 F437.000 
G2 X-18.250 Y41.500 Z5.250 I-0.750 J0.000 F437.000 
G2 X-16.750 Y41.500 Z3.500 I0.750 J0.000 F437.000 
G2 X-18.250 Y41.500 Z1.750 I-0.750 J0.000 F437.000 
G2 X-16.750 Y41.500 Z0.000 I0.750 J0.000 F437.000 
G2 X-18.250 Y41.500 Z0.000 I-0.750 J0.000 F437.000 
G2 X-16.750 Y41.500 Z0.000 I0.750 J0.000 F437.000 
G0 X-17.500 Y41.500 Z0.000 
G0 Z21.000 
G0 Z26.000 
G0 X-44.000 Y41.500 Z26.000 
G0 X-44.000 Y41.500 Z21.000 
G0 X-43.900 Y41.500 
G1 Z21.000 F437.000 
G2 X-44.100 Y41.500 Z19.250 I-0.100 J0.000 F437.000 
G2 X-43.900 Y41.500 Z17.500 I0.100 J0.000 F437.000 
G2 X-44.100 Y41.500 Z15.750 I-0.100 J0.000 F437.000 
G2 X-43.900 Y41.500 Z14.000 I0.100 J0.000 F437.000 
G2 X-44.100 Y41.500 Z12.250 I-0.100 J0.000 F437.000 
G2 X-43.900 Y41.500 Z10.500 I0.100 J0.000 F437.000 
G2 X-44.100 Y41.500 Z8.750 I-0.100 J0.000 F437.000 
G2 X-43.900 Y41.500 Z7.000 I0.100 J0.000 F437.000 
G2 X-44.100 Y41.500 Z5.250 I-0.100 J0.000 F437.000 
G2 X-43.900 Y41.500 Z3.500 I0.100 J0.000 F437.000 
G2 X-44.100 Y41.500 Z1.750 I-0.100 J0.000 F437.000 
G2 X-43.900 Y41.500 Z0.000 I0.100 J0.000 F437.000 
G2 X-44.100 Y41.500 Z0.000 I-0.100 J0.000 F437.000 
G2 X-43.900 Y41.500 Z0.000 I0.100 J0.000 F437.000 
G0 X-44.000 Y41.500 Z0.000 
G0 Z21.000 
G0 Z26.000 
G0 X-68.000 Y41.500 Z26.000 
G0 X-68.000 Y41.500 Z21.000 
G0 X-67.900 Y41.500 
G1 Z21.000 F437.000 
G2 X-68.100 Y41.500 Z19.250 I-0.100 J0.000 F437.000 
G2 X-67.900 Y41.500 Z17.500 I0.100 J0.000 F437.000 
G2 X-68.100 Y41.500 Z15.750 I-0.100 J0.000 F437.000 
G2 X-67.900 Y41.500 Z14.000 I0.100 J0.000 F437.000 
G2 X-68.100 Y41.500 Z12.250 I-0.100 J0.000 F437.000 
G2 X-67.900 Y41.500 Z10.500 I0.100 J0.000 F437.000 
G2 X-68.100 Y41.500 Z8.750 I-0.100 J0.000 F437.000 
G2 X-67.900 Y41.500 Z7.000 I0.100 J0.000 F437.000 
G2 X-68.100 Y41.500 Z5.250 I-0.100 J0.000 F437.000 
G2 X-67.900 Y41.500 Z3.500 I0.100 J0.000 F437.000 
G2 X-68.100 Y41.500 Z1.750 I-0.100 J0.000 F437.000 
G2 X-67.900 Y41.500 Z0.000 I0.100 J0.000 F437.000 
G2 X-68.100 Y41.500 Z0.000 I-0.100 J0.000 F437.000 
G2 X-67.900 Y41.500 Z0.000 I0.100 J0.000 F437.000 
G0 X-68.000 Y41.500 Z0.000 
G0 Z21.000 
G0 Z26.000 
G0 X-62.500 Y12.500 Z26.000 
G0 X-62.500 Y12.500 Z21.000 
G0 X-61.200 Y12.500 
G1 Z21.000 F437.000 
G2 X-63.800 Y12.500 Z19.250 I-1.300 J0.000 F437.000 
G2 X-61.200 Y12.500 Z17.500 I1.300 J0.000 F437.000 
G2 X-63.800 Y12.500 Z15.750 I-1.300 J0.000 F437.000 
G2 X-61.200 Y12.500 Z14.000 I1.300 J0.000 F437.000 
G2 X-63.800 Y12.500 Z12.250 I-1.300 J0.000 F437.000 
G2 X-61.200 Y12.500 Z10.500 I1.300 J0.000 F437.000 
G2 X-63.800 Y12.500 Z8.750 I-1.300 J0.000 F437.000 
G2 X-61.200 Y12.500 Z7.000 I1.300 J0.000 F437.000 
G2 X-63.800 Y12.500 Z5.250 I-1.300 J0.000 F437.000 
G2 X-61.200 Y12.500 Z3.500 I1.300 J0.000 F437.000 
G2 X-63.800 Y12.500 Z1.750 I-1.300 J0.000 F437.000 
G2 X-61.200 Y12.500 Z0.000 I1.300 J0.000 F437.000 
G2 X-63.800 Y12.500 Z0.000 I-1.300 J0.000 F437.000 
G2 X-61.200 Y12.500 Z0.000 I1.300 J0.000 F437.000 
G0 X-62.500 Y12.500 Z0.000 
G0 Z21.000 
G0 Z26.000 
G0 X-62.500 Y-27.500 Z26.000 
G0 X-62.500 Y-27.500 Z21.000 
G0 X-61.200 Y-27.500 
G1 Z21.000 F437.000 
G2 X-63.800 Y-27.500 Z19.250 I-1.300 J0.000 F437.000 
G2 X-61.200 Y-27.500 Z17.500 I1.300 J0.000 F437.000 
G2 X-63.800 Y-27.500 Z15.750 I-1.300 J0.000 F437.000 
G2 X-61.200 Y-27.500 Z14.000 I1.300 J0.000 F437.000 
G2 X-63.800 Y-27.500 Z12.250 I-1.300 J0.000 F437.000 
G2 X-61.200 Y-27.500 Z10.500 I1.300 J0.000 F437.000 
G2 X-63.800 Y-27.500 Z8.750 I-1.300 J0.000 F437.000 
G2 X-61.200 Y-27.500 Z7.000 I1.300 J0.000 F437.000 
G2 X-63.800 Y-27.500 Z5.250 I-1.300 J0.000 F437.000 
G2 X-61.200 Y-27.500 Z3.500 I1.300 J0.000 F437.000 
G2 X-63.800 Y-27.500 Z1.750 I-1.300 J0.000 F437.000 
G2 X-61.200 Y-27.500 Z0.000 I1.300 J0.000 F437.000 
G2 X-63.800 Y-27.500 Z0.000 I-1.300 J0.000 F437.000 
G2 X-61.200 Y-27.500 Z0.000 I1.300 J0.000 F437.000 
G0 X-62.500 Y-27.500 Z0.000 
G0 Z21.000 
G0 Z26.000 
(finish operation: Helix001)
(begin postamble)
M05
G17 G54 G90 G80 G40
M2
