(Exported by FreeCAD)
(Post Processor: linuxcnc_post)
(Output Time:2022-04-22 01:48:05.524979)
(begin preamble)
G17 G54 G40 G49 G80 G90
G21
(begin operation: 8mm_endmill001)
(machine units: mm/min)
(8mm_endmill001) 
M5
M6 T3 
G43 H3 
(finish operation: 8mm_endmill001)
(begin operation: Fixture)
(machine units: mm/min)
G54 
G0 Z26.000 
(finish operation: Fixture)
(begin operation: Profile)
(machine units: mm/min)
(Profile) 
(Compensated Tool Path. Diameter: 8.0) 
G0 Z26.000 
G0 X75.421 Y48.922 
G0 Z24.000 
G1 X75.421 Y48.922 Z13.000 F437.000 
G2 X78.493 Y41.752 Z13.000 I-7.428 J-7.425 F437.000 
G1 X78.500 Y-47.500 Z13.000 F437.000 
G2 X74.000 Y-52.000 Z13.000 I-4.500 J0.000 F437.000 
G1 X-74.000 Y-52.000 Z13.000 F437.000 
G2 X-78.500 Y-47.500 Z13.000 I0.000 J4.500 F437.000 
G1 X-78.500 Y41.500 Z13.000 F437.000 
G2 X-68.252 Y51.993 Z13.000 I10.503 J-0.007 F437.000 
G1 X68.000 Y52.000 Z13.000 F437.000 
G2 X75.421 Y48.922 Z13.000 I-0.007 J-10.503 F437.000 
G1 X75.421 Y48.922 Z5.000 F437.000 
G2 X78.493 Y41.752 Z5.000 I-7.428 J-7.425 F437.000 
G1 X78.500 Y-47.500 Z5.000 F437.000 
G2 X74.000 Y-52.000 Z5.000 I-4.500 J0.000 F437.000 
G1 X-74.000 Y-52.000 Z5.000 F437.000 
G2 X-78.500 Y-47.500 Z5.000 I0.000 J4.500 F437.000 
G1 X-78.500 Y41.500 Z5.000 F437.000 
G2 X-68.252 Y51.993 Z5.000 I10.503 J-0.007 F437.000 
G1 X68.000 Y52.000 Z5.000 F437.000 
G2 X75.421 Y48.922 Z5.000 I-0.007 J-10.503 F437.000 
G1 X75.421 Y48.922 Z1.000 F437.000 
G2 X78.493 Y41.752 Z1.000 I-7.428 J-7.425 F437.000 
G1 X78.500 Y-47.500 Z1.000 F437.000 
G2 X74.000 Y-52.000 Z1.000 I-4.500 J0.000 F437.000 
G1 X-74.000 Y-52.000 Z1.000 F437.000 
G2 X-78.500 Y-47.500 Z1.000 I0.000 J4.500 F437.000 
G1 X-78.500 Y41.500 Z1.000 F437.000 
G2 X-68.252 Y51.993 Z1.000 I10.503 J-0.007 F437.000 
G1 X68.000 Y52.000 Z1.000 F437.000 
G2 X75.421 Y48.922 Z1.000 I-0.007 J-10.503 F437.000 
G0 Z26.000 
G0 Z26.000 
(finish operation: Profile)
(begin operation: DressupTag)
(machine units: mm/min)
G0 Z26.000 
G0 X75.068 Y48.569 Z26.000 
G0 X75.068 Y48.569 Z24.000 
G1 X75.068 Y48.569 Z0.000 F437.000 
G2 X77.994 Y41.724 Z0.000 I-7.074 J-7.072 F437.000 
G1 X78.000 Y-47.500 Z0.000 F437.000 
G2 X74.000 Y-51.500 Z0.000 I-4.000 J0.000 F437.000 
G1 X48.395 Y-51.500 Z0.000 F437.000 
G1 X47.895 Y-51.500 Z0.500 F437.000 
G1 X26.105 Y-51.500 Z0.500 F437.000 
G1 X25.605 Y-51.500 Z0.000 F437.000 
G1 X-25.605 Y-51.500 Z0.000 F437.000 
G1 X-26.105 Y-51.500 Z0.500 F437.000 
G1 X-47.895 Y-51.500 Z0.500 F437.000 
G1 X-48.395 Y-51.500 Z0.000 F437.000 
G1 X-74.000 Y-51.500 Z0.000 F437.000 
G2 X-78.000 Y-47.500 Z0.000 I0.000 J4.000 F437.000 
G1 X-78.000 Y41.500 Z0.000 F437.000 
G2 X-68.224 Y51.494 Z0.000 I10.003 J-0.007 F437.000 
G1 X-45.563 Y51.495 Z0.000 F437.000 
G1 X-45.063 Y51.495 Z0.500 F437.000 
G1 X-23.273 Y51.496 Z0.500 F437.000 
G1 X-22.773 Y51.496 Z0.000 F437.000 
G1 X22.549 Y51.498 Z0.000 F437.000 
G1 X23.049 Y51.498 Z0.500 F437.000 
G1 X44.839 Y51.499 Z0.500 F437.000 
G1 X45.339 Y51.499 Z0.000 F437.000 
G1 X68.000 Y51.500 Z0.000 F437.000 
G2 X75.068 Y48.569 Z0.000 I-0.007 J-10.003 F437.000 
G0 X75.068 Y48.569 Z26.000 
(finish operation: DressupTag)
(begin postamble)
M05
G17 G54 G90 G80 G40
M2
